X: 16944
T: Hawk Polka, The
R: barndance
M: 4/4
K: Dmajor
z2|A2 (3ABA F2A2|d2A>d f>ed>c|B2 (3BcB G2B2|e>Bg>f e>dc>B|
A2 (3ABA F2A2|d2A2 f>ed2|e2 (3e^de g2c2|e2d2 d2:|
|:g2|f>ga>b a>fg>b|a>Ad>f a>gf2|e>fg2- g2c2|d>ef2- f>Ad>e|
f>ga>b a>fg>b|a>Ad>f a>gf2|e2 (3e^de g2c2|e2d2 d2:|
|:d2|d>d'b>g d>BG>B|d>d'b>g d2B2|d>=cA2- A2c2|e>d^c>d B2d2|
d>d'b>g d>BG>B|d>d'b>g d4|d>ef2 f>ga2|a2g2 g2:|

